Newaita/actions/symbolic/media-skip-forward-symbolic.svg

<svg height="16" viewBox="0 0 16 16" width="16" xmlns="http://www.w3.org/2000/svg"><g fill="#424242"><path d="m14.222656 4.09375h-.660156c-.367188 0-.664062.296875-.664062.660156v6.617188c0 .363281.296874.660156.664062.660156h.660156c.367188 0 .660156-.296875.660156-.660156v-6.617188c0-.363281-.292968-.660156-.660156-.660156zm0 0" fill-opacity=".979757"/><path d="m7.621094 4.097656c-.367188-.007812-.671875.289063-.671875.65625v6.617188c0 .535156.605469.847656 1.039062.535156l4.632813-3.308594c.367187-.261718.367187-.808594 0-1.070312l-4.632813-3.308594c-.105469-.074219-.234375-.117188-.367187-.121094zm0 0"/><path d="m1.652344 4.097656c-.367188-.007812-.671875.289063-.671875.65625v6.617188c0 .535156.605469.847656 1.042969.535156l4.628906-3.308594c.367187-.261718.367187-.808594 0-1.070312l-4.628906-3.308594c-.109376-.074219-.238282-.117188-.371094-.121094zm0 0"/></g></svg>

<?xml version="1.0" encoding="UTF-8"?>
<svg xmlns="http://www.w3.org/2000/svg" xmlns:xlink="http://www.w3.org/1999/xlink" width="16px" height="16px" viewBox="0 0 16 16" version="1.1">
<g id="surface1">
<path style=" stroke:none;fill-rule:nonzero;fill:rgb(25.882354%,25.882354%,25.882354%);fill-opacity:0.979757;" d="M 14.222656 4.09375 L 13.5625 4.09375 C 13.195312 4.09375 12.898438 4.390625 12.898438 4.753906 L 12.898438 11.371094 C 12.898438 11.734375 13.195312 12.03125 13.5625 12.03125 L 14.222656 12.03125 C 14.589844 12.03125 14.882812 11.734375 14.882812 11.371094 L 14.882812 4.753906 C 14.882812 4.390625 14.589844 4.09375 14.222656 4.09375 Z M 14.222656 4.09375 "/>
<path style=" stroke:none;fill-rule:nonzero;fill:rgb(25.882354%,25.882354%,25.882354%);fill-opacity:1;" d="M 7.621094 4.097656 C 7.253906 4.089844 6.949219 4.386719 6.949219 4.753906 L 6.949219 11.371094 C 6.949219 11.90625 7.554688 12.21875 7.988281 11.90625 L 12.621094 8.597656 C 12.988281 8.335938 12.988281 7.789062 12.621094 7.527344 L 7.988281 4.21875 C 7.882812 4.144531 7.753906 4.101562 7.621094 4.097656 Z M 7.621094 4.097656 "/>
<path style=" stroke:none;fill-rule:nonzero;fill:rgb(25.882354%,25.882354%,25.882354%);fill-opacity:1;" d="M 1.652344 4.097656 C 1.285156 4.089844 0.980469 4.386719 0.980469 4.753906 L 0.980469 11.371094 C 0.980469 11.90625 1.585938 12.21875 2.023438 11.90625 L 6.652344 8.597656 C 7.019531 8.335938 7.019531 7.789062 6.652344 7.527344 L 2.023438 4.21875 C 1.914062 4.144531 1.785156 4.101562 1.652344 4.097656 Z M 1.652344 4.097656 "/>
</g>
</svg>
